icons/skills/photoshop.svg

<?xml version="1.0" encoding="UTF-8"?>
<svg xmlns="http://www.w3.org/2000/svg" xmlns:xlink="http://www.w3.org/1999/xlink" width="px" height="px" viewBox="0 0 400 400" version="1.1">
<g id="surface1">
<path style=" stroke:none;fill-rule:nonzero;fill:rgb(4.705882%,3.137255%,14.117647%);fill-opacity:1;" d="M 39.585938 43.960938 L 360.414062 43.960938 L 360.414062 356.039062 L 39.585938 356.039062 Z M 39.585938 43.960938 "/>
<path style=" stroke:none;fill-rule:nonzero;fill:rgb(19.215686%,77.254902%,94.117647%);fill-opacity:1;" d="M 39.585938 43.960938 L 360.414062 43.960938 L 360.414062 356.039062 L 39.585938 356.039062 Z M 25 370.625 L 375 370.625 L 375 29.375 L 25 29.375 Z M 260.960938 169.375 C 249.4375 169.375 245.5 175.210938 245.5 180.023438 C 245.5 185.273438 248.125 188.925781 263.585938 196.9375 C 286.488281 208.023438 293.585938 218.664062 293.585938 234.273438 C 293.585938 257.613281 275.800781 270.148438 251.738281 270.148438 C 241.410156 270.53125 231.148438 268.386719 221.835938 263.898438 C 220.8125 263.460938 220.675781 262.738281 220.675781 261.5625 L 220.675781 240.101562 C 220.675781 238.636719 221.398438 238.199219 222.425781 238.9375 C 231.167969 244.558594 241.34375 247.542969 251.738281 247.539062 C 263.261719 247.539062 268.074219 242.726562 268.074219 236.164062 C 268.074219 230.914062 264.726562 226.25 249.988281 218.664062 C 229.273438 208.75 220.675781 198.664062 220.675781 181.914062 C 220.675781 163.101562 235.398438 147.5 260.925781 147.5 C 269.808594 147.117188 278.683594 148.507812 287.023438 151.585938 C 288.003906 152.222656 288.5625 153.335938 288.488281 154.5 L 288.488281 174.5 C 288.488281 175.664062 287.761719 176.398438 286.300781 175.960938 C 278.589844 171.523438 269.820312 169.257812 260.925781 169.398438 Z M 135.539062 186.726562 C 138.886719 187.011719 141.511719 187.011719 147.351562 187.011719 C 164.414062 187.011719 180.449219 181.039062 180.449219 157.851562 C 180.449219 139.324219 168.925781 130 149.539062 130 C 143.699219 130 138.164062 130.289062 135.539062 130.4375 Z M 109.574219 109.226562 C 109.574219 108.199219 111.613281 107.476562 112.789062 107.476562 C 122.125 107.039062 135.976562 106.75 150.414062 106.75 C 190.8125 106.75 206.5625 128.914062 206.5625 157.210938 C 206.5625 194.25 179.726562 210.148438 146.773438 210.148438 C 141.238281 210.148438 139.335938 209.863281 135.398438 209.863281 L 135.398438 265.863281 C 135.398438 267.023438 134.960938 267.613281 133.648438 267.613281 L 111.335938 267.613281 C 110.175781 267.613281 109.585938 267.175781 109.585938 265.863281 L 109.585938 109.289062 Z M 109.574219 109.226562 "/>
</g>
</svg>

<?xml version="1.0" encoding="UTF-8" standalone="no"?>
<svg
   width="px"
   height="px"
   viewBox="0 0 400 400"
   version="1.1"
   id="svg284"
   sodipodi:docname="photoshop.svg"
   inkscape:version="1.2.2 (732a01da63, 2022-12-09)"
   xmlns:inkscape="http://www.inkscape.org/namespaces/inkscape"
   xmlns:sodipodi="http://sodipodi.sourceforge.net/DTD/sodipodi-0.dtd"
   xmlns="http://www.w3.org/2000/svg"
   xmlns:svg="http://www.w3.org/2000/svg">
  <defs
     id="defs288" />
  <sodipodi:namedview
     id="namedview286"
     pagecolor="#ffffff"
     bordercolor="#000000"
     borderopacity="0.25"
     inkscape:showpageshadow="2"
     inkscape:pageopacity="0.0"
     inkscape:pagecheckerboard="0"
     inkscape:deskcolor="#d1d1d1"
     showgrid="false"
     inkscape:zoom="2.0925"
     inkscape:cx="184.94624"
     inkscape:cy="162.00717"
     inkscape:window-width="1920"
     inkscape:window-height="1017"
     inkscape:window-x="-8"
     inkscape:window-y="-8"
     inkscape:window-maximized="1"
     inkscape:current-layer="svg284" />
  <g
     id="surface1"
     transform="matrix(1.1390317,0,0,1.1390317,-27.80635,-27.80635)">
    <path
       style="fill:#0a0723;fill-opacity:1;fill-rule:nonzero;stroke:none"
       d="M 39.585938,43.960938 H 360.41406 V 356.03906 H 39.585938 Z m 0,0"
       id="path279" />
    <path
       style="fill:#30c5f0;fill-opacity:1;fill-rule:nonzero;stroke:none"
       d="M 39.585938,43.960938 H 360.41406 V 356.03906 H 39.585938 Z M 25,370.625 H 375 V 29.375 H 25 Z m 235.96094,-201.25 c -11.52344,0 -15.46094,5.83594 -15.46094,10.64844 0,5.25 2.625,8.90234 18.08594,16.91406 22.90234,11.08594 30,21.72656 30,37.33594 0,23.33984 -17.78516,35.875 -41.84766,35.875 -10.32812,0.38281 -20.58984,-1.76172 -29.90234,-6.25 -1.02344,-0.4375 -1.16016,-1.16016 -1.16016,-2.33594 v -21.46094 c 0,-1.46484 0.72266,-1.90234 1.75,-1.16406 8.74219,5.62109 18.91797,8.60547 29.3125,8.60156 11.52344,0 16.33594,-4.8125 16.33594,-11.375 0,-5.25 -3.34766,-9.91406 -18.08594,-17.5 -20.71484,-9.91406 -29.3125,-20 -29.3125,-36.75 0,-18.8125 14.72266,-34.41406 40.25,-34.41406 8.88281,-0.38281 17.75781,1.00781 26.09766,4.08594 0.98047,0.63672 1.53906,1.75 1.46484,2.91406 v 20 c 0,1.16406 -0.72656,1.89844 -2.1875,1.46094 -7.71094,-4.4375 -16.48047,-6.70313 -25.375,-6.5625 z m -125.42188,17.35156 c 3.34766,0.28516 5.97266,0.28516 11.8125,0.28516 17.0625,0 33.09766,-5.97266 33.09766,-29.16016 0,-18.52734 -11.52344,-27.85156 -30.91016,-27.85156 -5.83984,0 -11.375,0.28906 -14,0.4375 z m -25.96484,-77.5 c 0,-1.02734 2.03906,-1.75 3.21484,-1.75 9.33594,-0.4375 23.1875,-0.72656 37.625,-0.72656 40.39844,0 56.14844,22.16406 56.14844,50.46094 0,37.03906 -26.83594,52.9375 -59.78906,52.9375 -5.53516,0 -7.4375,-0.28516 -11.375,-0.28516 v 56 c 0,1.16016 -0.4375,1.75 -1.75,1.75 h -22.3125 c -1.16016,0 -1.75,-0.4375 -1.75,-1.75 V 109.28906 Z m 0,0"
       id="path281" />
  </g>
</svg>
